packages/rn-bitcoin-icons/svg/outline/bitcoin-circle.svg

<svg width="24" height="24" viewBox="0 0 24 24" fill="none" xmlns="http://www.w3.org/2000/svg">
<path d="M20.2473 14.0515C19.1131 18.6023 14.5039 21.3811 9.94477 20.2462C5.39397 19.1085 2.61956 14.4993 3.75378 9.94853C4.88801 5.39774 9.49442 2.61886 14.0424 3.75378C18.6044 4.87478 21.3788 9.4979 20.2473 14.0515Z" stroke="black"/>
<path d="M9.39911 14.9122L11.0926 8.12012" stroke="black" stroke-linecap="square" stroke-linejoin="round"/>
<path d="M9.63712 7.75726C9.63712 7.75726 11.0902 8.11957 13.8181 8.79969C16.5459 9.47982 15.9371 12.6775 13.0318 11.9532C16.2158 12.747 15.8914 16.5309 12.1246 15.5918C10.2837 15.1328 8.31195 14.6412 8.31195 14.6412" stroke="black" stroke-linecap="square" stroke-linejoin="round"/>
<path d="M10.3063 11.2736L12.9746 11.9389" stroke="black" stroke-linecap="square" stroke-linejoin="round"/>
<path d="M11.5777 8.24109L11.9406 6.78564" stroke="black" stroke-linecap="square" stroke-linejoin="round"/>
<path d="M9.52136 16.4886L9.88425 15.0332" stroke="black" stroke-linecap="square" stroke-linejoin="round"/>
<path d="M13.5183 8.72497L13.8812 7.26953" stroke="black" stroke-linecap="square" stroke-linejoin="round"/>
<path d="M11.462 16.9725L11.8249 15.517" stroke="black" stroke-linecap="square" stroke-linejoin="round"/>
</svg>

<svg xmlns="http://www.w3.org/2000/svg" fill="none" viewBox="0 0 24 24" stroke="currentColor">
  <path d="M20.247 14.052a8.502 8.502 0 01-10.302 6.194C5.394 19.11 2.62 14.5 3.754 9.95c1.134-4.551 5.74-7.33 10.288-6.195 4.562 1.12 7.337 5.744 6.205 10.298z"/>
  <path stroke-linecap="square" stroke-linejoin="round" d="M9.4 14.912l1.693-6.792M9.637 7.757L13.818 8.8c2.728.68 2.12 3.877-.786 3.153 3.184.794 2.86 4.578-.907 3.639-1.841-.46-3.813-.95-3.813-.95M10.306 11.274l2.669.665M11.578 8.241l.363-1.455M9.521 16.489l.363-1.456M13.518 8.725l.363-1.455M11.462 16.973l.363-1.456"/>
</svg>
